X:1
T:Title
%%score { ( 1 4 ) | ( 2 3 ) }
L:1/8
M:4/4
K:G
V:1 treble nm="Grand Piano"
V:4 treble 
V:2 treble 
V:3 treble 
V:1
 z4 z2[Q:1/4=92] G>A | B<d B>A G2 [CA]>[B,G] | [EG]2 [CE]2 [B,D]2 G>A | B<d B>A G2 AB | [FA]6 G>A | %5
[M:3/4] B<d B>A G2 |[M:1/4] [CA]>[B,G] | %7
[M:39/32] [EG]/-<[EG]/[CE]/-<[CE]/[CE]/4-[CE]/4-[CE]/-<[CE]/[EG]/[Ec]/4-[Ec]/4-[Ec]/4-[Ec]/4-[Ec]/4-[Ec]/4-[Ec]/4-[Ec]/4-[Ec]/-<[Ec]/[Ge]/4-[Ge]/4-[Ge]/4-[Ge]/4-[Ge]/-<[Ge]/[Ge]3/4 | %8
[M:4/4] (9:8:8[Gd]/[DGB]3/2 [CFA]2 [B,G]/ [DGB]/-[DGB]3/2[CFA]/- [CFA]2 | %9
 [B,G]6- [B,G]/4 z/4 z/ z | (7:8:6[EG]/[Ec]-[Ec]/4 [Ec]/4-[Ec][Ec]/ [Ec]4 | %11
 (7:8:6B/B-B/4 B/4-BB/ B4 | (9:8:8d/B3/2 A2 G/ A/-A3/2B/- B2 | z4 z2 (3:2:2G2 A | %14
 (9:8:9B/d3/2- [Gd-]2 [Gd-]/ [Gd]/-[Gd-]3/2[B-d]/B3/2A/ | %15
[M:35/32] (3:2:4[EG]3/4-[EG]/8E3/2-E/4- E4- E/4-[EG-e-]/4[Ge]3/2-[Ge]/<[Ge]/ | %16
[M:4/4] [Gd]<[DGB] [CFA]>[B,G] [DGB]2 [CFA]2 |[M:3/4] [B,G]6 |] %18
V:2
 z4 z2 [G,B,]>[G,CG] | [G,DG]<[G,B,G] [G,DG]>[K:bass][G,CD] [G,B,D]2 [G,,G,]>[G,,G,] | %2
 [C,G,]2 [C,G,]2 [G,,G,]2 [G,B,]>[K:treble][G,C] | z4 z2 .[A,F]2 | [D,D]6 [G,B,]>[K:treble][G,CG] | %5
[M:3/4] [G,DG]<[G,B,G] [G,DG]>[G,CD][K:bass] [G,B,D]2 |[M:1/4] [G,,G,]>[G,,G,] | %7
[M:39/32] [C,G,]/-<[C,G,]/[C,G,]/-<[C,G,]/[C,G,]/4-[C,G,]/4-[C,G,]/-<[C,G,]/[C,G,]/[C,G,]/4-[C,G,]/4-[C,G,]/4-[C,G,]/4-[C,G,]/4-[C,G,]/4-[C,G,]/4-[C,G,]/4-[C,G,]/-<[C,G,]/[C,C]/4-[C,C]/4-[C,C]/4-[C,C]/4-[C,C]/-<[C,C]/[C,C]3/4 | %8
[M:4/4] (9:8:8[D,B,]/D,3/2 D,2 D,/ D,/-D,3/2D,/- D,2 | [G,,G,]6- [G,,G,]/4 z/4 z/ z | %10
 (7:8:6[C,C]/[C,G,]-[C,G,]/4 [C,G,]/4-[C,G,][C,G,]/ [C,G,]4 | %11
 (7:8:6[G,D]/[G,D]-[G,D]/4 [G,D]/4-[G,D][G,D]/ [G,D]4 | %12
 (9:8:8[G,B,G]/[G,DG]3/2 [A,CD]2 [B,D]/ [A,DF]/-[A,DF]3/2[G,DG]/- [G,DG]2 | %13
 [D,D]6- [D,D]/4 z/4 z/ z | %14
 (7:8:6[G,G]/[G,B,G]-[G,B,G]/4 [G,B,]/4-[G,B,][G,B,]/[K:bass] [G,B,]2- [G,B,]/4 z/4 z/ z | %15
[M:35/32] (3:2:4[C,C]3/4-[C,C]/8[C,G,C]3/2-[C,G,C]/4-[C,G,C] z3/4 (3:2:4[C,G,]3/4-[C,G,]/8[C,G,]3/2-[C,G,]/4-[C,G,-]/>[C,-G,C-]/[C,C]3/2-[C,C]/<[C,C]/ | %16
[M:4/4] [D,B,]<D, D,>D, D,2 D,2 |[M:3/4] G,,6 |] %18
V:3
 x8 | x7/2[K:bass] x9/2 | x15/2[K:treble] x/ | [G,D]<[G,B,D] [G,DG]>[A,DF] [B,D]2 D-[G,DG] | %4
 x15/2[K:treble] x/ |[M:3/4] x4[K:bass] x2 |[M:1/4] x2 |[M:39/32] x39/4 |[M:4/4] x481/60 | x8 | %10
 x8 | x8 | x481/60 | x8 | x55/16[K:bass] x293/64 |[M:35/32] z2 [C,G,]3/2-[C,G,]/4 z4 z | %16
[M:4/4] x8 |[M:3/4] x6 |] %18
V:4
 x8 | x8 | x8 | x8 | x8 |[M:3/4] x6 |[M:1/4] x2 |[M:39/32] x39/4 |[M:4/4] x481/60 | x8 | x8 | x8 | %12
 x481/60 | [FA]6- [FA]/4 z/4 z/ z | x8 |[M:35/32] z2 C>C C2- C/4 z2 z/ |[M:4/4] x8 |[M:3/4] x6 |] %18

